X: 7721
T: Colonel Hopkins
R: reel
M: 4/4
K: Gmajor
ge|:dBGB d2ef|g2af gfed|bgaf gfed|BedB A2 ge|
dBGB dBef|gaaf gfed|bgaf gfed|1 (3efg fa g2 ge:|2 (3efg fa g2GA||
|:~B2dB ~A2BA|GABG AGFD|~B2dB ~A2BA|GABd edgd|
(3BAG dB ABBA|GABG AGFD|BGAF GFED|1 (3EFG FA G2 GA:|2 (3EFG FA G2 ge||

